X: 1
T: R\oragenvalsen
C: Sven Nyhus
R: waltz
Z: John Chambers <jc:trillian.mit.edu>
M: 3/4
L: 1/8
K: A
zE2 \
| "A"[c3E]([dF][c2E]) | "E7"[B3D][cE]-[d2F] \
| "A"[c4E][B2D] | [A3C][BD][c2=GE] \
| "D"[d3F][eG]-[f2A] | "E7"[e2G][B2G][d2F] \
| "A"[c6E]- | [c3E][AC][BD][cE] |
| "D"[d2F]z[FD][F2D] | [F2D][A2F][d2A] \
| "A"[c3A]BAc | [e3c][ec][e2c] \
| "Bm"[d2B]-[c2A][BG][cA] | "E7"[d2B]zE[FD]G \
| "A"[A3C][AC][A2C] | [A3C] :|
|: efg | "A"[a2e]z[ae][a2e] | "C#aug"[a2^e][a2c][g2B]  \
| "D"[g4B][f2A] | "(Bm)"[f4A]B2 \
| "E7"[g4B]B2 | [g4B][f2A] \
| "A"[e3A]^def | "E7"[e4G][d2B] |
| "A"[c3A]ABc | "Bm"[d4B][c2A] \
| [B2F][F4D] | [B3F]ABd \
| "A"[c3A]BAc | "E7"[B3E]E[FD]G \
| "A"[A3C][AC][A2C] | [A3C] :|

%%sep 1 1 500

